public/logos/logo--developer-intelligence--dark.svg

<svg width="313" height="32" viewBox="0 0 313 32" fill="none" xmlns="http://www.w3.org/2000/svg">
<path d="M51.4385 32C51.1889 32 50.9857 31.7967 50.9857 31.5472V0.45283C50.9857 0.20327 51.1889 0 51.4385 0C51.6881 0 51.8913 0.20327 51.8913 0.45283V31.5472C51.8913 31.7967 51.6881 32 51.4385 32Z" fill="white"/>
<path d="M25.5537 17.7646C28.0694 17.7646 31.7142 17.2433 31.7142 14.2506C31.7142 14.0172 31.7082 13.7897 31.6518 13.5623L30.1525 7.04962C29.8063 5.61868 29.5024 4.9666 26.9847 3.70874C25.0325 2.7105 20.7799 1.0622 19.522 1.0622C18.3507 1.0622 18.0045 2.57969 16.6158 2.57969C15.2714 2.57969 14.2732 1.45264 13.0153 1.45264C11.7997 1.45264 11.0189 2.2778 10.4131 3.96836C10.4131 3.96836 8.7205 8.74019 8.50315 9.43453C8.45887 9.56535 8.45887 9.71025 8.45887 9.82497C8.45887 11.6786 15.7625 17.7646 25.5537 17.7646ZM32.1047 15.4642C32.4508 17.1125 32.4508 17.2856 32.4508 17.503C32.4508 20.3226 29.283 21.8843 25.119 21.8843C15.7042 21.8843 7.46063 16.3739 7.46063 12.7291C7.46063 12.1656 7.59145 11.6443 7.76453 11.2539C4.38138 11.431 0 12.0368 0 15.8989C0 22.2325 15.0118 30.0433 26.8981 30.0433C36.0091 30.0433 38.3074 25.9216 38.3074 22.6672C38.3094 20.1072 36.0956 17.2011 32.1047 15.4642Z" fill="#EE0000"/>
<path d="M32.1047 15.4642C32.4508 17.1125 32.4508 17.2856 32.4508 17.503C32.4508 20.3226 29.283 21.8843 25.119 21.8843C15.7042 21.8843 7.46063 16.3739 7.46063 12.7291C7.46063 12.1656 7.59145 11.6443 7.76453 11.2539L8.50315 9.43453C8.45887 9.56535 8.45887 9.71025 8.45887 9.82497C8.45887 11.6786 15.7625 17.7646 25.5537 17.7646C28.0694 17.7646 31.7142 17.2433 31.7142 14.2506C31.7142 14.0172 31.7082 13.7897 31.6518 13.5623L32.1047 15.4642Z" fill="black"/>
<path d="M63.7139 21.1866V8.5866H70.1579C72.7499 8.5866 74.6039 10.2606 74.6039 12.6006C74.6039 14.1846 73.6679 15.4986 72.2459 16.1466L74.9999 21.1866H71.5439L69.1679 16.5966H66.8099V21.1866H63.7139ZM66.8099 14.0766H69.8699C70.8239 14.0766 71.4719 13.5006 71.4719 12.6546C71.4719 11.8086 70.8239 11.2326 69.8699 11.2326H66.8099V14.0766Z" fill="white"/>
<path d="M80.2574 21.3666C77.3414 21.3666 75.0734 19.2066 75.0734 16.4346C75.0734 13.6626 77.2514 11.5026 80.0414 11.5026C82.8314 11.5026 84.8474 13.6986 84.8474 16.7046V17.4246H78.0614C78.4394 18.3246 79.3034 18.9366 80.4014 18.9366C81.1934 18.9366 81.8594 18.6846 82.3094 18.2166L84.2354 19.9266C83.0294 20.9346 81.8414 21.3666 80.2574 21.3666ZM78.0074 15.3906H81.9854C81.6794 14.4726 80.9234 13.8786 79.9874 13.8786C79.0154 13.8786 78.2954 14.4366 78.0074 15.3906Z" fill="white"/>
<path d="M90.7264 21.3126C88.0084 21.3126 85.8664 19.1526 85.8664 16.4166C85.8664 13.6806 88.0444 11.5386 90.8164 11.5386C91.6984 11.5386 92.5264 11.7546 93.2464 12.1686V8.5866L96.1624 8.1366V21.1866H93.2824V20.4846C92.5444 21.0246 91.6624 21.3126 90.7264 21.3126ZM91.2304 18.8286C92.0404 18.8286 92.7244 18.5766 93.2464 18.0726V14.7426C92.7424 14.2746 92.0224 14.0046 91.2304 14.0046C89.8084 14.0046 88.7284 15.0486 88.7284 16.4166C88.7284 17.7846 89.8264 18.8286 91.2304 18.8286Z" fill="white"/>
<path d="M101.63 21.1866V8.5866H104.726V13.4286H109.91V8.5866H113.006V21.1866H109.91V16.2546H104.726V21.1866H101.63Z" fill="white"/>
<path d="M117.817 21.3486C115.783 21.3486 114.361 20.1426 114.361 18.3966C114.361 16.5786 115.801 15.5346 118.285 15.5346C119.023 15.5346 119.743 15.6246 120.445 15.8046V15.3366C120.445 14.3826 119.833 13.9146 118.627 13.9146C117.871 13.9146 116.989 14.1486 115.747 14.6706L114.703 12.5286C116.251 11.8266 117.691 11.4846 119.149 11.4846C121.795 11.4846 123.325 12.7986 123.325 15.0846V21.1866H120.445V20.6106C119.671 21.1326 118.843 21.3486 117.817 21.3486ZM117.133 18.3426C117.133 18.9366 117.691 19.2966 118.627 19.2966C119.329 19.2966 119.941 19.1526 120.445 18.8466V17.6226C119.887 17.4786 119.311 17.4066 118.717 17.4066C117.709 17.4066 117.133 17.7486 117.133 18.3426Z" fill="white"/>
<path d="M129.6 21.3126C127.314 21.3126 126.144 20.2866 126.144 18.2886V14.0946H124.218V11.6646H126.144V9.2166L129.06 8.5866V11.6646H131.724V14.0946H129.06V17.7126C129.06 18.5586 129.384 18.8646 130.32 18.8646C130.788 18.8646 131.148 18.8106 131.634 18.6666V21.0246C131.094 21.1866 130.158 21.3126 129.6 21.3126Z" fill="white"/>
<path d="M136.97 21.1866V8.5866H141.128C144.962 8.5866 147.752 11.2326 147.752 14.8866C147.752 18.5406 144.98 21.1866 141.128 21.1866H136.97ZM138.356 19.9266H141.2C144.116 19.9266 146.348 17.7486 146.348 14.8866C146.348 12.0246 144.116 9.8466 141.2 9.8466H138.356V19.9266Z" fill="white"/>
<path d="M153.903 21.3486C151.293 21.3486 149.259 19.3146 149.259 16.6686C149.259 14.0766 151.221 12.0246 153.705 12.0246C156.099 12.0246 157.971 14.0766 157.971 16.6686V17.0826H150.573C150.771 18.8646 152.175 20.1786 153.957 20.1786C154.893 20.1786 155.829 19.8726 156.441 19.3506L157.269 20.2326C156.261 20.9886 155.199 21.3486 153.903 21.3486ZM150.609 16.0206H156.639C156.405 14.4186 155.163 13.1946 153.669 13.1946C152.103 13.1946 150.861 14.3646 150.609 16.0206Z" fill="white"/>
<path d="M162.432 21.1866L158.525 12.1686H160.001L163.079 19.4586L166.158 12.1686H167.579L163.691 21.1866H162.432Z" fill="white"/>
<path d="M172.764 21.3486C170.154 21.3486 168.12 19.3146 168.12 16.6686C168.12 14.0766 170.082 12.0246 172.566 12.0246C174.96 12.0246 176.832 14.0766 176.832 16.6686V17.0826H169.434C169.632 18.8646 171.036 20.1786 172.818 20.1786C173.754 20.1786 174.69 19.8726 175.302 19.3506L176.13 20.2326C175.122 20.9886 174.06 21.3486 172.764 21.3486ZM169.47 16.0206H175.5C175.266 14.4186 174.024 13.1946 172.53 13.1946C170.964 13.1946 169.722 14.3646 169.47 16.0206Z" fill="white"/>
<path d="M178.695 21.1866V8.5866L180.027 8.2806V21.1866H178.695Z" fill="white"/>
<path d="M186.492 21.3666C183.918 21.3666 181.884 19.3146 181.884 16.6866C181.884 14.0586 183.918 12.0066 186.492 12.0066C189.066 12.0066 191.1 14.0586 191.1 16.6866C191.1 19.3146 189.066 21.3666 186.492 21.3666ZM186.492 20.1786C188.328 20.1786 189.786 18.6486 189.786 16.6866C189.786 14.7246 188.328 13.1946 186.492 13.1946C184.656 13.1946 183.198 14.7246 183.198 16.6866C183.198 18.6486 184.656 20.1786 186.492 20.1786Z" fill="white"/>
<path d="M192.95 24.8586V12.1686H194.264V13.1406C195.038 12.4026 196.046 12.0246 197.18 12.0246C199.736 12.0246 201.716 14.0586 201.716 16.6686C201.716 19.2966 199.736 21.3306 197.162 21.3306C196.1 21.3306 195.092 20.9526 194.282 20.2866V24.8586H192.95ZM197.054 20.1606C198.962 20.1606 200.402 18.6666 200.402 16.6866C200.402 14.7066 198.944 13.1946 197.054 13.1946C195.92 13.1946 194.912 13.6626 194.282 14.4546V18.9186C194.912 19.6926 195.938 20.1606 197.054 20.1606Z" fill="white"/>
<path d="M207.798 21.3486C205.188 21.3486 203.154 19.3146 203.154 16.6686C203.154 14.0766 205.116 12.0246 207.6 12.0246C209.994 12.0246 211.866 14.0766 211.866 16.6686V17.0826H204.468C204.666 18.8646 206.07 20.1786 207.852 20.1786C208.788 20.1786 209.724 19.8726 210.336 19.3506L211.164 20.2326C210.156 20.9886 209.094 21.3486 207.798 21.3486ZM204.504 16.0206H210.534C210.3 14.4186 209.058 13.1946 207.564 13.1946C205.998 13.1946 204.756 14.3646 204.504 16.0206Z" fill="white"/>
<path d="M213.728 21.1866V12.1686H215.06V13.4466C215.6 12.5106 216.482 11.9706 217.58 11.9706C217.922 11.9706 218.156 12.0066 218.426 12.0966V13.3206C218.102 13.2126 217.796 13.1586 217.49 13.1586C216.374 13.1586 215.528 13.8066 215.06 15.0126V21.1866H213.728Z" fill="white"/>
<path d="M224.07 21.1866V8.5866H225.456V21.1866H224.07Z" fill="white"/>
<path d="M227.984 21.1866V12.1686H229.316V13.2306C230.018 12.4026 230.99 11.9886 232.16 11.9886C234.212 11.9886 235.634 13.4106 235.634 15.4806V21.1866H234.32V15.7506C234.32 14.1486 233.348 13.1586 231.8 13.1586C230.72 13.1586 229.856 13.6626 229.316 14.5446V21.1866H227.984Z" fill="white"/>
<path d="M241.145 21.3666C239.579 21.3666 238.715 20.6106 238.715 19.1886V13.3026H236.771V12.1686H238.715V9.8826L240.029 9.5406V12.1686H242.747V13.3026H240.029V18.8466C240.029 19.8186 240.425 20.1966 241.415 20.1966C241.919 20.1966 242.279 20.1426 242.729 19.9626V21.1326C242.261 21.2946 241.667 21.3666 241.145 21.3666Z" fill="white"/>
<path d="M248.227 21.3486C245.617 21.3486 243.583 19.3146 243.583 16.6686C243.583 14.0766 245.545 12.0246 248.029 12.0246C250.423 12.0246 252.295 14.0766 252.295 16.6686V17.0826H244.897C245.095 18.8646 246.499 20.1786 248.281 20.1786C249.217 20.1786 250.153 19.8726 250.765 19.3506L251.593 20.2326C250.585 20.9886 249.523 21.3486 248.227 21.3486ZM244.933 16.0206H250.963C250.729 14.4186 249.487 13.1946 247.993 13.1946C246.427 13.1946 245.185 14.3646 244.933 16.0206Z" fill="white"/>
<path d="M254.157 21.1866V8.5866L255.489 8.2806V21.1866H254.157Z" fill="white"/>
<path d="M257.761 21.1866V8.5866L259.093 8.2806V21.1866H257.761Z" fill="white"/>
<path d="M262.03 10.4406C261.544 10.4406 261.13 10.0266 261.13 9.5406C261.13 9.0366 261.544 8.6406 262.03 8.6406C262.534 8.6406 262.93 9.0366 262.93 9.5406C262.93 10.0266 262.534 10.4406 262.03 10.4406ZM261.364 21.1866V12.1686H262.696V21.1866H261.364Z" fill="white"/>
<path d="M269.36 25.0386C268.1 25.0386 266.84 24.6966 265.832 24.1026L266.408 23.0586C267.488 23.6346 268.37 23.8866 269.306 23.8866C271.016 23.8866 271.916 23.0586 271.916 21.4746V20.2146C271.106 20.8986 270.116 21.2586 269.054 21.2586C266.552 21.2586 264.554 19.2426 264.554 16.6326C264.554 14.0406 266.534 12.0066 269.09 12.0066C270.116 12.0066 271.106 12.3846 271.934 13.0686V12.1686H273.248V21.4566C273.248 23.7606 271.862 25.0386 269.36 25.0386ZM269.162 20.0886C270.314 20.0886 271.304 19.6386 271.916 18.8466V14.4186C271.304 13.6446 270.296 13.1946 269.162 13.1946C267.29 13.1946 265.868 14.6886 265.868 16.6326C265.868 18.5766 267.308 20.0886 269.162 20.0886Z" fill="white"/>
<path d="M279.745 21.3486C277.135 21.3486 275.101 19.3146 275.101 16.6686C275.101 14.0766 277.063 12.0246 279.547 12.0246C281.941 12.0246 283.813 14.0766 283.813 16.6686V17.0826H276.415C276.613 18.8646 278.017 20.1786 279.799 20.1786C280.735 20.1786 281.671 19.8726 282.283 19.3506L283.111 20.2326C282.103 20.9886 281.041 21.3486 279.745 21.3486ZM276.451 16.0206H282.481C282.247 14.4186 281.005 13.1946 279.511 13.1946C277.945 13.1946 276.703 14.3646 276.451 16.0206Z" fill="white"/>
<path d="M285.675 21.1866V12.1686H287.007V13.2306C287.709 12.4026 288.681 11.9886 289.851 11.9886C291.903 11.9886 293.325 13.4106 293.325 15.4806V21.1866H292.011V15.7506C292.011 14.1486 291.039 13.1586 289.491 13.1586C288.411 13.1586 287.547 13.6626 287.007 14.5446V21.1866H285.675Z" fill="white"/>
<path d="M299.73 21.3486C297.156 21.3486 295.14 19.2966 295.14 16.6686C295.14 14.0586 297.156 11.9886 299.73 11.9886C301.044 11.9886 302.322 12.5106 303.258 13.4106L302.412 14.3826C301.692 13.6266 300.72 13.2126 299.748 13.2126C297.894 13.2126 296.454 14.7426 296.454 16.6686C296.454 18.6306 297.912 20.1426 299.766 20.1426C300.738 20.1426 301.62 19.7646 302.394 19.0086L303.222 19.9086C302.268 20.8266 301.026 21.3486 299.73 21.3486Z" fill="white"/>
<path d="M308.749 21.3486C306.139 21.3486 304.105 19.3146 304.105 16.6686C304.105 14.0766 306.067 12.0246 308.551 12.0246C310.945 12.0246 312.817 14.0766 312.817 16.6686V17.0826H305.419C305.617 18.8646 307.021 20.1786 308.803 20.1786C309.739 20.1786 310.675 19.8726 311.287 19.3506L312.115 20.2326C311.107 20.9886 310.045 21.3486 308.749 21.3486ZM305.455 16.0206H311.485C311.251 14.4186 310.009 13.1946 308.515 13.1946C306.949 13.1946 305.707 14.3646 305.455 16.0206Z" fill="white"/>
</svg>

<svg xmlns="http://www.w3.org/2000/svg" fill="none" viewBox="0 0 313 32">
  <path fill="#fff" d="M51.438 32a.453.453 0 0 1-.452-.453V.453a.453.453 0 0 1 .905 0v31.094c0 .25-.203.453-.453.453Z"/>
  <path fill="#E00" d="M25.554 17.765c2.515 0 6.16-.522 6.16-3.514 0-.234-.006-.461-.062-.689l-1.5-6.512c-.346-1.431-.65-2.083-3.167-3.341-1.953-.998-6.205-2.647-7.463-2.647-1.171 0-1.517 1.518-2.906 1.518-1.345 0-2.343-1.127-3.6-1.127-1.216 0-1.997.825-2.603 2.515 0 0-1.693 4.772-1.91 5.467-.044.13-.044.275-.044.39 0 1.854 7.303 7.94 17.095 7.94Zm6.55-2.3c.347 1.648.347 1.82.347 2.038 0 2.82-3.168 4.381-7.332 4.381-9.415 0-17.658-5.51-17.658-9.155 0-.563.13-1.085.304-1.475C4.38 11.43 0 12.037 0 15.899c0 6.334 15.012 14.144 26.898 14.144 9.111 0 11.41-4.121 11.41-7.376.001-2.56-2.212-5.466-6.203-7.203Z"/>
  <path fill="#000" d="M32.105 15.464c.346 1.649.346 1.822.346 2.039 0 2.82-3.168 4.381-7.332 4.381-9.415 0-17.658-5.51-17.658-9.155 0-.563.13-1.085.304-1.475l.738-1.82c-.044.131-.044.276-.044.391 0 1.854 7.303 7.94 17.095 7.94 2.515 0 6.16-.522 6.16-3.514 0-.234-.006-.461-.062-.689l.453 1.902Z"/>
  <path fill="#fff" d="M63.714 21.187v-12.6h6.444c2.592 0 4.446 1.674 4.446 4.014 0 1.584-.936 2.898-2.358 3.546L75 21.187h-3.456l-2.376-4.59H66.81v4.59h-3.096Zm3.096-7.11h3.06c.954 0 1.602-.576 1.602-1.422s-.648-1.422-1.602-1.422h-3.06v2.844Z"/>
  <path fill="#fff" d="M80.257 21.367c-2.916 0-5.184-2.16-5.184-4.932 0-2.772 2.178-4.932 4.968-4.932s4.806 2.196 4.806 5.202v.72h-6.786c.378.9 1.242 1.512 2.34 1.512.792 0 1.458-.252 1.908-.72l1.926 1.71c-1.206 1.008-2.394 1.44-3.978 1.44Zm-2.25-5.976h3.978c-.306-.918-1.062-1.512-1.998-1.512-.972 0-1.692.558-1.98 1.512Z"/>
  <path fill="#fff" d="M90.726 21.313c-2.718 0-4.86-2.16-4.86-4.896 0-2.736 2.178-4.878 4.95-4.878.882 0 1.71.216 2.43.63V8.587l2.916-.45v13.05h-2.88v-.702c-.738.54-1.62.828-2.556.828Zm.504-2.484c.81 0 1.494-.252 2.016-.756v-3.33c-.504-.468-1.224-.738-2.016-.738-1.422 0-2.502 1.044-2.502 2.412 0 1.368 1.098 2.412 2.502 2.412Z"/>
  <path fill="#fff" d="M101.63 21.187v-12.6h3.096v4.842h5.184V8.587h3.096v12.6h-3.096v-4.932h-5.184v4.932h-3.096Z"/>
  <path fill="#fff" d="M117.817 21.349c-2.034 0-3.456-1.206-3.456-2.952 0-1.818 1.44-2.862 3.924-2.862.738 0 1.458.09 2.16.27v-.468c0-.954-.612-1.422-1.818-1.422-.756 0-1.638.234-2.88.756l-1.044-2.142c1.548-.702 2.988-1.044 4.446-1.044 2.646 0 4.176 1.314 4.176 3.6v6.102h-2.88v-.576c-.774.522-1.602.738-2.628.738Zm-.684-3.006c0 .594.558.954 1.494.954.702 0 1.314-.144 1.818-.45v-1.224a6.887 6.887 0 0 0-1.728-.216c-1.008 0-1.584.342-1.584.936Z"/>
  <path fill="#fff" d="M129.6 21.313c-2.286 0-3.456-1.026-3.456-3.024v-4.194h-1.926v-2.43h1.926V9.217l2.916-.63v3.078h2.664v2.43h-2.664v3.618c0 .846.324 1.152 1.26 1.152.468 0 .828-.054 1.314-.198v2.358c-.54.162-1.476.288-2.034.288Z"/>
  <path fill="#fff" d="M136.97 21.187v-12.6h4.158c3.834 0 6.624 2.646 6.624 6.3s-2.772 6.3-6.624 6.3h-4.158Zm1.386-1.26h2.844c2.916 0 5.148-2.178 5.148-5.04s-2.232-5.04-5.148-5.04h-2.844v10.08Z"/>
  <path fill="#fff" d="M153.903 21.349c-2.61 0-4.644-2.034-4.644-4.68 0-2.592 1.962-4.644 4.446-4.644 2.394 0 4.266 2.052 4.266 4.644v.414h-7.398c.198 1.782 1.602 3.096 3.384 3.096.936 0 1.872-.306 2.484-.828l.828.882c-1.008.756-2.07 1.116-3.366 1.116Zm-3.294-5.328h6.03c-.234-1.602-1.476-2.826-2.97-2.826-1.566 0-2.808 1.17-3.06 2.826Z"/>
  <path fill="#fff" d="m162.432 21.187-3.907-9.018h1.476l3.078 7.29 3.079-7.29h1.421l-3.888 9.018h-1.259Z"/>
  <path fill="#fff" d="M172.764 21.349c-2.61 0-4.644-2.034-4.644-4.68 0-2.592 1.962-4.644 4.446-4.644 2.394 0 4.266 2.052 4.266 4.644v.414h-7.398c.198 1.782 1.602 3.096 3.384 3.096.936 0 1.872-.306 2.484-.828l.828.882c-1.008.756-2.07 1.116-3.366 1.116Zm-3.294-5.328h6.03c-.234-1.602-1.476-2.826-2.97-2.826-1.566 0-2.808 1.17-3.06 2.826Z"/>
  <path fill="#fff" d="M178.695 21.187v-12.6l1.332-.306v12.906h-1.332Z"/>
  <path fill="#fff" d="M186.492 21.367c-2.574 0-4.608-2.052-4.608-4.68 0-2.628 2.034-4.68 4.608-4.68s4.608 2.052 4.608 4.68c0 2.628-2.034 4.68-4.608 4.68Zm0-1.188c1.836 0 3.294-1.53 3.294-3.492s-1.458-3.492-3.294-3.492-3.294 1.53-3.294 3.492 1.458 3.492 3.294 3.492Z"/>
  <path fill="#fff" d="M192.95 24.859v-12.69h1.314v.972c.774-.738 1.782-1.116 2.916-1.116 2.556 0 4.536 2.034 4.536 4.644 0 2.628-1.98 4.662-4.554 4.662a4.527 4.527 0 0 1-2.88-1.044v4.572h-1.332Zm4.104-4.698c1.908 0 3.348-1.494 3.348-3.474 0-1.98-1.458-3.492-3.348-3.492-1.134 0-2.142.468-2.772 1.26v4.464c.63.774 1.656 1.242 2.772 1.242Z"/>
  <path fill="#fff" d="M207.798 21.349c-2.61 0-4.644-2.034-4.644-4.68 0-2.592 1.962-4.644 4.446-4.644 2.394 0 4.266 2.052 4.266 4.644v.414h-7.398c.198 1.782 1.602 3.096 3.384 3.096.936 0 1.872-.306 2.484-.828l.828.882c-1.008.756-2.07 1.116-3.366 1.116Zm-3.294-5.328h6.03c-.234-1.602-1.476-2.826-2.97-2.826-1.566 0-2.808 1.17-3.06 2.826Z"/>
  <path fill="#fff" d="M213.728 21.187v-9.018h1.332v1.278c.54-.936 1.422-1.476 2.52-1.476.342 0 .576.036.846.126v1.224a2.927 2.927 0 0 0-.936-.162c-1.116 0-1.962.648-2.43 1.854v6.174h-1.332Z"/>
  <path fill="#fff" d="M224.07 21.187v-12.6h1.386v12.6h-1.386Z"/>
  <path fill="#fff" d="M227.984 21.187v-9.018h1.332v1.062c.702-.828 1.674-1.242 2.844-1.242 2.052 0 3.474 1.422 3.474 3.492v5.706h-1.314V15.75c0-1.602-.972-2.592-2.52-2.592-1.08 0-1.944.504-2.484 1.386v6.642h-1.332Z"/>
  <path fill="#fff" d="M241.145 21.367c-1.566 0-2.43-.756-2.43-2.178v-5.886h-1.944v-1.134h1.944V9.883l1.314-.342v2.628h2.718v1.134h-2.718v5.544c0 .972.396 1.35 1.386 1.35.504 0 .864-.054 1.314-.234v1.17c-.468.162-1.062.234-1.584.234Z"/>
  <path fill="#fff" d="M248.227 21.349c-2.61 0-4.644-2.034-4.644-4.68 0-2.592 1.962-4.644 4.446-4.644 2.394 0 4.266 2.052 4.266 4.644v.414h-7.398c.198 1.782 1.602 3.096 3.384 3.096.936 0 1.872-.306 2.484-.828l.828.882c-1.008.756-2.07 1.116-3.366 1.116Zm-3.294-5.328h6.03c-.234-1.602-1.476-2.826-2.97-2.826-1.566 0-2.808 1.17-3.06 2.826Z"/>
  <path fill="#fff" d="M254.157 21.187v-12.6l1.332-.306v12.906h-1.332Z"/>
  <path fill="#fff" d="M257.761 21.187v-12.6l1.332-.306v12.906h-1.332Z"/>
  <path fill="#fff" d="M262.03 10.44a.915.915 0 0 1-.9-.9c0-.503.414-.9.9-.9.504 0 .9.397.9.9 0 .487-.396.9-.9.9Zm-.666 10.747v-9.018h1.332v9.018h-1.332Z"/>
  <path fill="#fff" d="M269.36 25.039c-1.26 0-2.52-.342-3.528-.936l.576-1.044c1.08.576 1.962.828 2.898.828 1.71 0 2.61-.828 2.61-2.412v-1.26a4.38 4.38 0 0 1-2.862 1.044c-2.502 0-4.5-2.016-4.5-4.626 0-2.592 1.98-4.626 4.536-4.626 1.026 0 2.016.378 2.844 1.062v-.9h1.314v9.288c0 2.304-1.386 3.582-3.888 3.582Zm-.198-4.95c1.152 0 2.142-.45 2.754-1.242v-4.428c-.612-.774-1.62-1.224-2.754-1.224-1.872 0-3.294 1.494-3.294 3.438 0 1.944 1.44 3.456 3.294 3.456Z"/>
  <path fill="#fff" d="M279.745 21.349c-2.61 0-4.644-2.034-4.644-4.68 0-2.592 1.962-4.644 4.446-4.644 2.394 0 4.266 2.052 4.266 4.644v.414h-7.398c.198 1.782 1.602 3.096 3.384 3.096.936 0 1.872-.306 2.484-.828l.828.882c-1.008.756-2.07 1.116-3.366 1.116Zm-3.294-5.328h6.03c-.234-1.602-1.476-2.826-2.97-2.826-1.566 0-2.808 1.17-3.06 2.826Z"/>
  <path fill="#fff" d="M285.675 21.187v-9.018h1.332v1.062c.702-.828 1.674-1.242 2.844-1.242 2.052 0 3.474 1.422 3.474 3.492v5.706h-1.314V15.75c0-1.602-.972-2.592-2.52-2.592-1.08 0-1.944.504-2.484 1.386v6.642h-1.332Z"/>
  <path fill="#fff" d="M299.73 21.349c-2.574 0-4.59-2.052-4.59-4.68 0-2.61 2.016-4.68 4.59-4.68 1.314 0 2.592.522 3.528 1.422l-.846.972c-.72-.756-1.692-1.17-2.664-1.17-1.854 0-3.294 1.53-3.294 3.456 0 1.962 1.458 3.474 3.312 3.474.972 0 1.854-.378 2.628-1.134l.828.9c-.954.918-2.196 1.44-3.492 1.44Z"/>
  <path fill="#fff" d="M308.749 21.349c-2.61 0-4.644-2.034-4.644-4.68 0-2.592 1.962-4.644 4.446-4.644 2.394 0 4.266 2.052 4.266 4.644v.414h-7.398c.198 1.782 1.602 3.096 3.384 3.096.936 0 1.872-.306 2.484-.828l.828.882c-1.008.756-2.07 1.116-3.366 1.116Zm-3.294-5.328h6.03c-.234-1.602-1.476-2.826-2.97-2.826-1.566 0-2.808 1.17-3.06 2.826Z"/>
</svg>
